Yaru++/actions/16/format-text-symbol.svg

<svg viewBox="0 0 24 24" xmlns="http://www.w3.org/2000/svg"><path d="m9 4s-5 0-5 5c.9988232-1.9976463 1.9984639-2.9976491 4.9902344-3-.0119582 10.936865-2.9877494 11.692212-2.9902344 13.4375 1.5008252 1.1521 3.8453726.5135 4.017578-1.75l.976563-11.6875h3.984375l-.978516 11.75c0 3 4 3 5 0l1-3c-1 2-3.999835 4.999966-3.912109 1.947266l.890625-10.697266h3.021484v-2z" fill="#808080"/></svg>

<svg xmlns="http://www.w3.org/2000/svg" viewBox="0 0 24 24">
 <defs>
  <style id="current-color-scheme" type="text/css">
   .ColorScheme-Text { color:#808080; }
  </style>
 </defs>
 <path fill="#808080" class="ColorScheme-Text" d="M 9 4 C 9 4 4 4 4 9 C 4.9988232 7.0023537 5.9984639 6.0023509 8.9902344 6 C 8.9782762 16.936865 6.002485 17.692212 6 19.4375 C 7.5008252 20.5896 9.8453726 19.951 10.017578 17.6875 L 10.994141 6 L 14.978516 6 L 14 17.75 C 14 20.75 18 20.75 19 17.75 L 20 14.75 C 19 16.75 16.000165 19.749966 16.087891 16.697266 L 16.978516 6 L 20 6 L 20 4 L 9 4 z"/>
</svg>
